www/assets/icons/waving_hand.svg

<svg width="24" height="24" viewBox="0 0 24 24" xmlns="http://www.w3.org/2000/svg" fill='currentColor'><g clip-path="url(#clip0_1616_1625)"><path d="M23.0025 16.9976C23.0025 20.3076 20.3125 22.9976 17.0025 22.9976V21.4976C19.4825 21.4976 21.5025 19.4776 21.5025 16.9976H23.0025ZM1.0025 6.99756C1.0025 3.68756 3.6925 0.997559 7.0025 0.997559V2.49756C4.5225 2.49756 2.5025 4.51756 2.5025 6.99756H1.0025ZM8.0125 4.31756L3.4125 8.91756C0.192497 12.1376 0.192497 17.3676 3.4125 20.5876C6.6325 23.8076 11.8625 23.8076 15.0825 20.5876L22.1525 13.5176C22.6425 13.0276 22.6425 12.2376 22.1525 11.7476C21.6625 11.2576 20.8725 11.2576 20.3825 11.7476L15.9625 16.1676L15.2525 15.4576L21.7925 8.91756C22.2825 8.42756 22.2825 7.63756 21.7925 7.14756C21.3025 6.65756 20.5125 6.65756 20.0225 7.14756L14.1925 12.9776L13.4825 12.2676L20.3725 5.37756C20.8625 4.88756 20.8625 4.09756 20.3725 3.60756C19.8825 3.11756 19.0925 3.11756 18.6025 3.60756L11.7125 10.4976L11.0225 9.79756L16.5025 4.31756C16.9925 3.82756 16.9925 3.03756 16.5025 2.54756C16.0125 2.05756 15.2225 2.05756 14.7325 2.54756L7.1125 10.1676C8.3325 11.7376 8.2225 14.0076 6.7825 15.4476L6.0725 14.7376C7.2425 13.5676 7.2425 11.6676 6.0725 10.4976L5.7225 10.1476L9.7925 6.07756C10.2825 5.58756 10.2825 4.79756 9.7925 4.30756C9.2925 3.82756 8.5025 3.82756 8.0125 4.31756Z"/></g><defs><clipPath id="clip0_1616_1625"><rect width="24" height="24"/></clipPath></defs></svg>

<svg xmlns="http://www.w3.org/2000/svg" width="24" height="24" viewBox="0 0 24 24" fill='currentColor'><g clip-path="url(#a)"><path d="M23.003 16.998c0 3.31-2.69 6-6 6v-1.5c2.48 0 4.5-2.02 4.5-4.5zm-22-10c0-3.31 2.69-6 6-6v1.5c-2.48 0-4.5 2.02-4.5 4.5zm7.01-2.68-4.6 4.6c-3.22 3.22-3.22 8.45 0 11.67s8.45 3.22 11.67 0l7.07-7.07c.49-.49.49-1.28 0-1.77a1.25 1.25 0 0 0-1.77 0l-4.42 4.42-.71-.71 6.54-6.54c.49-.49.49-1.28 0-1.77a1.25 1.25 0 0 0-1.77 0l-5.83 5.83-.71-.71 6.89-6.89c.49-.49.49-1.28 0-1.77a1.25 1.25 0 0 0-1.77 0l-6.89 6.89-.69-.7 5.48-5.48c.49-.49.49-1.28 0-1.77a1.25 1.25 0 0 0-1.77 0l-7.62 7.62a4 4 0 0 1-.33 5.28l-.71-.71a3 3 0 0 0 0-4.24l-.35-.35 4.07-4.07c.49-.49.49-1.28 0-1.77a1.27 1.27 0 0 0-1.78.01"/></g><defs><clipPath id="a"><path d="M0 0h24v24H0z"/></clipPath></defs></svg>
